icons/scilab.svg

<!--
  - The MIT License (MIT)
  -
  - Copyright (c) 2015-2024 Elior "Mallowigi" Boukhobza
  -
  - Permission is hereby granted, free of charge, to any person obtaining a copy
  - of this software and associated documentation files (the "Software"), to deal
  - in the Software without restriction, including without limitation the rights
  - to use, copy, modify, merge, publish, distribute, sublicense, and/or sell
  - copies of the Software, and to permit persons to whom the Software is
  - furnished to do so, subject to the following conditions:
  -
  - The above copyright notice and this permission notice shall be included in all
  - copies or substantial portions of the Software.
  -
  - THE SOFTWARE IS PROVIDED "AS IS", WITHOUT WARRANTY OF ANY KIND, EXPRESS OR
  - IMPLIED, INCLUDING BUT NOT LIMITED TO THE WARRANTIES OF MERCHANTABILITY,
  - FITNESS FOR A PARTICULAR PURPOSE AND NONINFRINGEMENT. IN NO EVENT SHALL THE
  - AUTHORS OR COPYRIGHT HOLDERS BE LIABLE FOR ANY CLAIM, DAMAGES OR OTHER
  - LIABILITY, WHETHER IN AN ACTION OF CONTRACT, TORT OR OTHERWISE, ARISING FROM,
  - OUT OF OR IN CONNECTION WITH THE SOFTWARE OR THE USE OR OTHER DEALINGS IN THE
  - SOFTWARE.
  -
  -->

<svg version="1.1" xmlns="http://www.w3.org/2000/svg" viewBox="0 0 512 512" width="16px" height="16px">
  <path fill="#81D4FA" data-iconColor="SciLab"
        d="M7.4161448,297.8899231c-9.8881912-5.7006531-9.8881941-20.0296631-0.0000033-25.7303162s22.3155403,1.4638367,22.3155403,12.8651428S17.3043346,303.5905762,7.4161448,297.8899231z M92.0917206,237.5180206c0-10.766571-11.7354813-17.5322113-21.0731735-12.1489258s-9.3376846,18.914566,0,24.2978363C80.3562393,255.0502167,92.0917206,248.2845764,92.0917206,237.5180206z M153.0723877,202.1371918c0-10.1318207-11.0436249-16.4985962-19.8308105-11.4326782c-8.787178,5.0659027-8.787178,17.7994537,0.0000153,22.8653564C142.0287781,218.635788,153.0723877,212.2690125,153.0723877,202.1371918z M164.8659973,239.6246948c0-10.4492035-11.3895569-17.0153961-20.4519806-11.790802c-9.062439,5.2245941-9.062439,18.3569946,0,23.581604C153.4764557,256.6400757,164.8659973,250.0738831,164.8659973,239.6246948z M175.8633423,277.92099c0-10.5549622-11.5048676-17.1876526-20.6590576-11.9101562s-9.1541901,18.5428467,0,23.820343S175.8633423,288.4759827,175.8633423,277.92099z M186.3465424,317.1389771c0-10.4491882-11.3895569-17.0153809-20.4519958-11.790802c-9.0624237,5.2246094-9.0624237,18.3570251,0.0000153,23.581604C174.9570007,334.1543884,186.3465424,327.5881653,186.3465424,317.1389771z M229.4894562,292.6802673c0-10.1318359-11.0436249-16.4985962-19.8308105-11.4326782c-8.7871857,5.0658875-8.7871704,17.7994385,0.0000153,22.8653564C218.4458466,309.178833,229.4894562,302.8120728,229.4894562,292.6802673z M224.4673004,252.8791809c0-10.1318207-11.0436249-16.4985962-19.8308105-11.4326782c-8.7871857,5.0659027-8.7871857,17.7994385,0,22.8653564S224.4673004,263.0109863,224.4673004,252.8791809z M219.2758484,213.8304749c0-9.9202423-10.8129883-16.1540527-19.4166718-11.193924c-8.6036987,4.9601135-8.6036835,17.4277496,0,22.3878632C208.4628601,229.9845428,219.2758484,223.7507172,219.2758484,213.8304749z M213.6423798,175.3648834c0-9.4946747-10.3491364-15.4610748-18.583725-10.7137299c-8.2346039,4.747345-8.2346039,16.6801147,0,21.4274597C203.2932587,190.825943,213.6423798,184.8595581,213.6423798,175.3648834z M273.4317932,155.5207672c0-8.8599243-9.6572876-14.4274597-17.3413696-9.9974823c-7.6841125,4.4299622-7.6840973,15.5650177,0,19.9949799C263.7745056,169.9482269,273.4317932,164.3807068,273.4317932,155.5207672z M329.289978,179.7224426c0-8.8599396-9.6572876-14.4274597-17.3413696-9.9974976s-7.684082,15.5650177,0,19.9949799S329.289978,188.5823669,329.289978,179.7224426z M325.4245911,218.3071594c0-9.2854919-10.1211243-15.1204376-18.1743164-10.4776917c-8.0531616,4.642746-8.0531616,16.3126373,0.0000305,20.9553833C315.3034668,233.4276123,325.4245911,227.5926666,325.4245911,218.3071594z M321.3084412,257.5314026c0-9.4946594-10.3491211-15.4610596-18.5837402-10.7137146c-8.2345886,4.7473297-8.2345886,16.6801147,0,21.4274597C310.9593201,272.9924927,321.3084412,267.0260925,321.3084412,257.5314026z M317.0637512,297.5268555c0-9.4946594-10.3491516-15.4610596-18.5837402-10.7137146c-8.2345886,4.7473145-8.2345886,16.6801147,0,21.4274597C306.7145996,312.987915,317.0637512,307.0215454,317.0637512,297.5268555z M361.3477783,285.2818298c0-9.2831116-10.1185303-15.1165466-18.1696167-10.4750061c-8.0510864,4.641571-8.0510864,16.3084412,0,20.9499817S361.3477783,294.5649109,361.3477783,285.2818298z M352.9273376,325.2584534c0-9.1773071-10.0032043-14.9442749-17.9625244-10.3556213c-7.9593506,4.5886536-7.9593506,16.1225891,0,20.7112427S352.9273376,334.4357605,352.9273376,325.2584534z M369.4202271,246.327179c0-9.179718-10.0058289-14.9481812-17.9672546-10.3583374c-7.9614258,4.589859-7.9614258,16.1268005,0,20.7166443C359.4143982,261.2753601,369.4202271,255.5068817,369.4202271,246.327179z M377.1729126,207.9995117c0-8.8599396-9.6572876-14.4274597-17.3413696-9.9974976c-7.6841125,4.4299774-7.6841125,15.5650177,0,19.9949799C367.515625,222.4269714,377.1729126,216.8594513,377.1729126,207.9995117z M407.3121338,277.1999817c0-9.0715332-9.8879089-14.7720032-17.7554932-10.2362366c-7.8676147,4.5357361-7.8675842,15.9367065,0,20.4724731C397.4242249,291.9719543,407.3121338,286.2714844,407.3121338,277.1999817z M395.5310669,315.8097839c0-9.0715332-9.8879089-14.7720032-17.7554932-10.2362366c-7.8676147,4.5357361-7.8675842,15.9367065,0,20.4724731C385.643158,330.5817566,395.5310669,324.8812866,395.5310669,315.8097839z M418.6166992,239.3927002c0-8.8599243-9.6572876-14.4274597-17.3413696-9.9974823c-7.6841125,4.4299622-7.6841125,15.5650177,0,19.9949799C408.9594116,253.8201599,418.6166992,248.2526398,418.6166992,239.3927002z M454.4552002,273.1245728c0-8.8599548-9.6572571-14.4274597-17.3413391-9.9974976c-7.6841125,4.4299622-7.6841125,15.5650024,0,19.9949646C444.7979431,287.552002,454.4552002,281.9844971,454.4552002,273.1245728z M439.6959534,310.2107849c0-8.9657288-9.772583-14.5997314-17.5484314-10.1168518c-7.7758484,4.4828491-7.7758484,15.7508545,0,20.2337036C429.9233704,324.8105164,439.6959534,319.1765137,439.6959534,310.2107849z M467.3774109,345.0273132c0-8.8599243-9.6572876-14.4274597-17.3413696-9.997467c-7.6841125,4.4299622-7.6841125,15.5650024,0,19.9949646C457.7201233,359.4547729,467.3774109,353.8872681,467.3774109,345.0273132z M485.4220581,308.8251343c0-8.8599243-9.6572571-14.4274597-17.3413696-9.997467c-7.684082,4.4299622-7.684082,15.5650024,0,19.9949646C475.764801,323.252594,485.4220581,317.6850891,485.4220581,308.8251343z M512,346.3565369c0-8.8599243-9.6572571-14.4274597-17.3413696-9.9974976c-7.684082,4.4299622-7.684082,15.565033,0,19.9949951C502.3427429,360.7839966,512,355.2164612,512,346.3565369z M274.1246033,194.1054993c0-9.3912964-10.2364502-15.2927094-18.3813782-10.5970764c-8.1449432,4.6956482-8.144928,16.4985046,0,21.1941376C263.8881531,209.3982086,274.1246033,203.4967957,274.1246033,194.1054993z M274.4537659,233.1855469c0-9.7062683-10.5797424-15.805603-18.9978485-10.9524841c-8.4181061,4.8531342-8.4181061,17.0518341,0,21.904953C263.8740234,248.9911499,274.4537659,242.8917999,274.4537659,233.1855469z M274.6826172,272.9490051c0-9.8144531-10.6976929-15.981781-19.2096252-11.0745544s-8.5119324,17.2418823,0,22.1491089S274.6826172,282.7634583,274.6826172,272.9490051z M274.532135,313.6153259c0-9.7038574-10.5771179-15.8016968-18.9931488-10.9497681c-8.4160156,4.8519287-8.4160004,17.0476074,0.0000153,21.8995361S274.532135,323.3191833,274.532135,313.6153259z M274.0681763,355.7864075c0-9.3912964-10.2364502-15.2927246-18.3813782-10.5970764c-8.1449432,4.6956482-8.144928,16.4985046,0,21.1941528S274.0681763,365.1777039,274.0681763,355.7864075z M312.3111877,338.713562c0-9.2830811-10.1184998-15.1165161-18.1696167-10.4749756c-8.0510864,4.6415405-8.0510864,16.3084412,0,20.9499817C302.192688,353.8301086,312.3111877,347.9966736,312.3111877,338.713562z M234.2357483,333.6287231c0-9.9202576-10.8130035-16.1540527-19.416687-11.1939392s-8.6036835,17.4277649,0,22.3878784S234.2357483,343.5489502,234.2357483,333.6287231z M110.7633667,272.7797241c0-10.9781494-11.9661026-17.8767395-21.4872971-12.3876648s-9.5211868,19.2862549,0.0000076,24.7753296S110.7633667,283.7578735,110.7633667,272.7797241z M128.5258789,308.9693604c0-10.9781494-11.9661026-17.8767395-21.4872894-12.3876648s-9.5211868,19.2862549,0,24.7753296S128.5258789,319.9475098,128.5258789,308.9693604z M57.3316116,315.3771667c0-11.5071106-12.5426598-18.7380981-22.5226021-12.9845276c-9.9799423,5.75354-9.9799385,20.2154846,0.0000038,25.9690552C44.7889519,334.1152344,57.3316116,326.8842468,57.3316116,315.3771667z"/>
</svg>

<svg xmlns="http://www.w3.org/2000/svg" viewBox="0 0 512 512"><path fill="#81d4fa" d="M7.416 297.89c-9.888-5.7-9.888-20.03 0-25.73s22.316 1.463 22.316 12.865S17.304 303.59 7.416 297.89m84.676-60.372c0-10.767-11.736-17.532-21.073-12.149s-9.338 18.915 0 24.298 21.073-1.382 21.073-12.149m60.98-35.38c0-10.133-11.043-16.5-19.83-11.433-8.788 5.065-8.788 17.799 0 22.865s19.83-1.301 19.83-11.433m11.794 37.487c0-10.45-11.39-17.016-20.452-11.791s-9.062 18.357 0 23.581 20.452-1.341 20.452-11.79m10.997 38.296c0-10.555-11.505-17.188-20.659-11.91s-9.154 18.543 0 23.82 20.66-1.355 20.66-11.91m10.484 39.218c0-10.45-11.39-17.015-20.452-11.79-9.063 5.224-9.063 18.356 0 23.58 9.062 5.225 20.452-1.34 20.452-11.79m43.142-24.459c0-10.132-11.043-16.498-19.83-11.432-8.788 5.065-8.788 17.799 0 22.865s19.83-1.3 19.83-11.433m-5.022-39.8c0-10.133-11.043-16.5-19.83-11.433-8.788 5.065-8.788 17.799 0 22.865s19.83-1.301 19.83-11.433m-5.191-39.05c0-9.92-10.813-16.154-19.417-11.193-8.604 4.96-8.604 17.427 0 22.387s19.417-1.273 19.417-11.194m-5.634-38.465c0-9.495-10.349-15.461-18.583-10.714-8.235 4.747-8.235 16.68 0 21.428 8.234 4.747 18.583-1.22 18.583-10.714m59.79-19.844c0-8.86-9.657-14.428-17.342-9.998s-7.684 15.565 0 19.995 17.342-1.137 17.342-9.997m55.858 24.201c0-8.86-9.657-14.427-17.341-9.997s-7.684 15.565 0 19.995 17.341-1.138 17.341-9.998m-3.865 38.585c0-9.285-10.122-15.12-18.175-10.478-8.053 4.643-8.053 16.313 0 20.956s18.175-1.192 18.175-10.478m-4.117 39.224c0-9.494-10.349-15.46-18.583-10.713-8.235 4.747-8.235 16.68 0 21.427s18.583-1.219 18.583-10.714m-4.244 39.996c0-9.495-10.35-15.461-18.584-10.714s-8.235 16.68 0 21.428c8.235 4.747 18.584-1.22 18.584-10.714m44.284-12.245c0-9.283-10.119-15.117-18.17-10.475-8.05 4.641-8.05 16.308 0 20.95s18.17-1.192 18.17-10.475m-8.42 39.976c0-9.177-10.004-14.944-17.963-10.355-7.96 4.588-7.96 16.122 0 20.711s17.962-1.178 17.962-10.356m16.492-78.93c0-9.18-10.006-14.949-17.967-10.36s-7.961 16.128 0 20.717c7.961 4.59 17.967-1.178 17.967-10.358M377.173 208c0-8.86-9.657-14.428-17.341-9.998s-7.685 15.565 0 19.995 17.34-1.138 17.34-9.997m30.14 69.2c0-9.072-9.889-14.772-17.756-10.236s-7.868 15.936 0 20.472c7.867 4.536 17.755-1.165 17.755-10.236m-11.782 38.61c0-9.072-9.888-14.772-17.755-10.236-7.868 4.535-7.868 15.936 0 20.472 7.867 4.536 17.755-1.165 17.755-10.236m23.086-76.417c0-8.86-9.658-14.428-17.342-9.998s-7.684 15.565 0 19.995 17.342-1.137 17.342-9.997m35.838 33.732c0-8.86-9.657-14.428-17.341-9.998s-7.684 15.565 0 19.995 17.341-1.138 17.341-9.997m-14.759 37.086c0-8.966-9.773-14.6-17.548-10.117-7.776 4.483-7.776 15.75 0 20.234 7.775 4.483 17.548-1.151 17.548-10.117m27.681 34.816c0-8.86-9.657-14.427-17.341-9.997s-7.684 15.565 0 19.995 17.341-1.138 17.341-9.998m18.045-36.202c0-8.86-9.657-14.427-17.341-9.997s-7.684 15.565 0 19.995 17.341-1.138 17.341-9.998M512 346.357c0-8.86-9.657-14.428-17.341-9.998s-7.684 15.565 0 19.995S512 355.216 512 346.357M274.125 194.105c0-9.39-10.237-15.292-18.382-10.597s-8.145 16.499 0 21.195c8.145 4.695 18.382-1.206 18.382-10.598m.329 39.08c0-9.706-10.58-15.805-18.998-10.952s-8.418 17.052 0 21.905 18.998-1.246 18.998-10.952m.229 39.764c0-9.814-10.698-15.982-19.21-11.075s-8.512 17.242 0 22.15 19.21-1.26 19.21-11.075m-.15 40.666c0-9.704-10.578-15.801-18.994-10.95s-8.416 17.048 0 21.9 18.993-1.246 18.993-10.95m-.465 42.171c0-9.39-10.236-15.292-18.381-10.597s-8.145 16.499 0 21.194 18.381-1.205 18.381-10.597m38.243-17.072c0-9.284-10.118-15.117-18.17-10.475-8.05 4.641-8.05 16.308 0 20.95 8.052 4.641 18.17-1.192 18.17-10.475m-78.075-5.085c0-9.92-10.813-16.154-19.417-11.194s-8.604 17.428 0 22.388 19.417-1.274 19.417-11.194m-123.473-60.85c0-10.977-11.966-17.876-21.487-12.387s-9.521 19.286 0 24.775 21.487-1.41 21.487-12.387m17.763 36.19c0-10.978-11.966-17.876-21.487-12.387s-9.522 19.286 0 24.775 21.487-1.41 21.487-12.388m-71.194 6.408c0-11.507-12.543-18.738-22.523-12.984s-9.98 20.215 0 25.969c9.98 5.753 22.523-1.478 22.523-12.985" data-iconColor="SciLab"/></svg>
